X: 256
U:~=!turn!
M:C
L:1/8
K:E aeolian
(GA) | BGEG BGEG | (GA)GF TE2 (FG) | AFDF AFDF | AGFE {FE}D2 (EF) | GFGE Tg2 (fe) | {/^c}dB{/F}GB {/c}d2 TB<A | {/F}GFGE DEFA | {/F}G2 E2 E2 |]


